!! 00000] TT[WS
!!!OTL: Chan jiao
!!!ARE: Asia, China, Shanxi Zuoquan
!! Ethnic Group: Han
!! WI, 269 (1)
!!!SCT: J0319
!!!YEM: Copyright 1995, estate of Helmut Schaffrath.
**kern
*ICvox
*Ivox
*M2/4
*k[f#]
*G:
{8r
8a
8a
8a
=1
8dd
16b
16dd
8b
8a
=2
8r
8dd
8b
8a
=3
8f#
8e
4g}
=4
{8r
8f#
8e
8d
=5
8dd
16b
16dd
8b
8e
=6
8f#
8a
8e
8B
=7
4.d
8r}
=8
{8g
8g
8f#
8e
=9
8d
8e
4g
=10
8.a
16g
8f#
8e
=11
8.d
16e
4g}
=12
{8r
8a
8a
8f#
=13
8r
8b
8g
8a
=14
8.b
16dd
8b
8e
=15
8f#
8a
8e
8B
=16
2d}
==
!!!AGN: Xiaodiao. XÅshi
!!!ONB: ESAC (Essen Associative Code) Database: CHINA
!!!AMT: simple duple
!!!AIN: vox
!!!EED: Helmut Schaffrath
!!!EEV: 1.0
*-
